optimized/outline/light-bulb.svg

<svg xmlns="http://www.w3.org/2000/svg" fill="none" viewBox="0 0 24 24" stroke-width="2" stroke="currentColor" aria-hidden="true">
  <path stroke-linecap="round" stroke-linejoin="round" d="M9.66347 17H14.3364M11.9999 3V4M18.3639 5.63604L17.6568 6.34315M21 11.9999H20M4 11.9999H3M6.34309 6.34315L5.63599 5.63604M8.46441 15.5356C6.51179 13.5829 6.51179 10.4171 8.46441 8.46449C10.417 6.51187 13.5829 6.51187 15.5355 8.46449C17.4881 10.4171 17.4881 13.5829 15.5355 15.5356L14.9884 16.0827C14.3555 16.7155 13.9999 17.5739 13.9999 18.469V19C13.9999 20.1046 13.1045 21 11.9999 21C10.8954 21 9.99995 20.1046 9.99995 19V18.469C9.99995 17.5739 9.6444 16.7155 9.01151 16.0827L8.46441 15.5356Z"/>
</svg>

<svg xmlns="http://www.w3.org/2000/svg" fill="none" viewBox="0 0 24 24" stroke-width="2" stroke="currentColor" aria-hidden="true">
  <path stroke-linecap="round" stroke-linejoin="round" d="M9.663 17h4.673M12 3v1m6.364 1.636l-.707.707M21 12h-1M4 12H3m3.343-5.657l-.707-.707m2.828 9.9a5 5 0 117.072 0l-.548.547A3.374 3.374 0 0014 18.469V19a2 2 0 11-4 0v-.531c0-.895-.356-1.754-.988-2.386l-.548-.547z"/>
</svg>
